_inc/systems/logos/cgenius.svg

<?xml version="1.0" encoding="utf-8"?>
<svg viewBox="0 0 213.5 29" xmlns="http://www.w3.org/2000/svg">
  <path d="M 153.743 12.732 L 147.988 12.732 C 148.303 13.751 148.382 14.182 148.382 14.966 C 148.382 15.356 148.356 15.789 148.329 16.181 L 147.725 22.333 L 146.595 22.333 C 145.964 22.333 145.781 22.097 145.781 21.313 C 145.781 21.157 145.807 20.96 145.807 20.726 L 146.858 9.676 C 146.911 8.892 146.963 8.461 146.989 8.265 C 147.042 7.991 147.2 7.678 147.383 7.481 C 147.638 7.218 147.941 7.081 148.251 7.091 L 151.693 7.091 C 152.376 7.091 153.216 7.169 153.48 7.286 C 153.637 7.403 153.874 7.56 154.189 7.795 L 154.846 0.781 L 145.728 0.781 C 145.018 0.781 144.598 0.82 144.44 0.82 C 143.967 0.9 143.547 1.212 143.179 1.76 C 142.575 2.583 142.286 3.72 142.102 5.445 L 140.394 23.586 C 140.315 24.487 140.263 25.31 140.263 25.977 C 140.263 28.092 140.946 29.033 142.496 29.033 L 149.88 29.033 C 150.615 29.033 151.483 28.327 151.929 27.309 C 152.428 26.25 152.507 25.819 152.744 23.155 L 153.743 12.732 Z M 164.147 29.033 L 164.751 22.684 L 159.732 22.684 L 160.153 18.179 L 165.198 18.179 L 165.776 11.792 L 160.758 11.792 L 161.204 7.011 L 166.275 7.011 L 166.827 0.781 L 159.995 0.781 C 158.497 0.781 157.972 1.017 157.342 2.191 C 156.684 3.25 156.264 4.895 156.08 6.777 L 154.53 23.234 C 154.478 23.713 154.451 24.198 154.451 24.683 C 154.451 27.622 155.423 29.033 157.394 29.033 L 164.147 29.033 Z M 165.986 29.033 L 171.109 29.033 L 172.975 9.559 C 173.08 8.109 173.501 7.403 174.184 7.403 C 174.709 7.403 175.051 7.912 175.051 8.618 C 175.051 8.814 175.025 9.127 174.972 9.48 L 173.133 29.033 L 178.283 29.033 L 180.49 5.601 C 180.542 4.817 180.621 3.955 180.621 3.564 C 180.621 1.879 179.807 0.781 178.572 0.781 L 176.47 0.781 C 175.76 0.781 175.103 1.135 174.604 1.76 C 174.131 2.388 173.868 2.936 173.395 4.425 C 173.448 3.485 173.474 3.015 173.474 2.544 C 173.474 1.996 173.448 1.643 173.343 0.781 L 168.061 0.781 C 168.219 2.349 168.271 2.975 168.271 3.838 C 168.271 4.387 168.245 5.053 168.166 5.876 L 165.986 29.033 Z M 180.068 29.033 L 185.166 29.033 L 187.846 0.781 L 182.696 0.781 L 180.068 29.033 Z M 201.904 0.781 L 196.806 0.781 L 194.887 20.805 C 194.756 22.334 194.73 22.451 194.336 22.804 C 194.126 22.96 193.915 23.078 193.679 23.078 C 193.101 23.078 192.733 22.647 192.733 21.942 C 192.733 21.784 192.759 21.432 192.838 21.002 L 194.73 0.782 L 189.579 0.782 L 187.294 25.389 C 187.241 25.939 187.188 26.525 187.188 26.879 C 187.188 28.485 187.661 29.034 189.08 29.034 L 197.121 29.034 C 198.856 29.034 199.328 28.329 199.617 25.389 L 201.904 0.781 Z M 200.747 29.033 L 207.973 29.033 C 209.103 29.033 209.654 28.719 210.258 27.896 C 210.916 26.956 210.994 26.564 211.231 24.213 L 212.124 14.809 C 212.177 14.417 212.177 13.986 212.177 13.594 C 212.177 11.948 211.52 11.125 210.18 11.125 L 207.552 11.125 L 207.973 7.011 L 212.886 7.011 L 213.464 0.781 L 207.001 0.781 C 205.477 0.781 205.188 0.9 204.425 1.565 C 203.479 2.544 203.19 3.406 202.901 6.621 L 202.297 12.812 C 202.245 13.475 202.219 14.142 202.218 14.809 C 202.218 17.239 202.849 18.257 204.32 18.257 L 206.632 18.257 L 206.238 22.606 L 201.377 22.606 L 200.747 29.033 Z M 7.646 28.291 L 8.277 21.55 L 6.332 21.55 C 5.833 21.55 5.544 21.159 5.544 20.414 C 5.544 20.336 5.544 20.257 5.57 20.14 L 6.674 8.228 C 6.753 7.287 7.121 6.817 7.752 6.817 L 9.696 6.817 L 10.326 0.04 L 5.465 0.04 C 4.02 0.04 3.81 0.156 3.153 1.057 C 2.417 2.077 1.865 3.682 1.734 5.329 L 0.052 23.04 C 0.026 23.352 0 23.666 0 24.019 C 0 25.312 0.262 26.566 0.683 27.271 C 1.13 28.133 1.524 28.289 2.812 28.289 L 7.646 28.291 Z M 13.821 28.291 L 15.134 28.291 C 17.972 28.291 18.76 27.937 20.074 26.214 C 20.694 25.373 21.187 24.344 21.519 23.196 C 21.861 21.981 22.176 20.101 22.387 17.867 L 23.069 10.697 C 23.385 7.406 23.438 6.856 23.438 6.034 C 23.438 3.918 23.017 2.077 22.308 1.215 C 21.703 0.47 20.573 0.039 19.049 0.039 L 16.553 0.039 C 14.056 0.039 12.454 1.136 11.718 3.409 C 11.193 5.015 10.85 7.092 10.509 10.697 L 9.826 17.867 C 9.721 19.199 9.616 20.532 9.616 21.394 C 9.616 25.743 11.193 28.289 13.821 28.289 L 13.821 28.291 Z M 16.789 21.002 C 16.632 21.628 16.185 22.137 15.738 22.137 C 15.213 22.137 14.871 21.628 14.871 20.924 C 14.871 20.649 14.897 20.257 14.976 19.709 L 16.106 7.562 C 16.237 6.113 16.553 5.603 17.315 5.603 C 17.867 5.603 18.156 5.955 18.156 6.778 C 18.156 7.014 18.13 7.287 18.103 7.562 L 16.947 19.709 C 16.911 20.144 16.858 20.576 16.789 21.003 L 16.789 21.002 Z M 23.173 28.291 L 28.297 28.291 L 30.189 8.502 C 30.295 7.171 30.688 6.465 31.372 6.465 C 32.029 6.465 32.318 6.936 32.318 7.954 C 32.318 8.11 32.292 8.345 32.292 8.503 L 30.4 28.289 L 35.524 28.289 L 37.39 8.385 C 37.521 7.17 37.968 6.386 38.625 6.386 C 39.176 6.386 39.492 6.856 39.492 7.68 C 39.492 7.876 39.466 8.071 39.466 8.307 L 37.521 28.289 L 42.618 28.289 L 44.852 4.78 C 44.931 3.957 44.957 3.29 44.957 2.704 C 44.957 0.979 44.3 0 43.144 0 L 40.7 0.039 C 39.99 0.078 39.334 0.509 38.966 1.174 C 38.756 1.528 38.572 1.999 38.362 2.586 C 38.283 2.859 38.125 3.251 37.968 3.761 C 37.968 1.999 37.915 1.567 37.652 0.979 C 37.468 0.47 36.891 0.039 36.338 0.039 L 33.264 0.039 C 32.344 0.039 31.792 0.705 30.951 2.978 L 30.452 4.271 C 30.557 3.212 30.584 2.742 30.584 2.155 C 30.584 1.488 30.557 1.057 30.453 0.039 L 25.249 0.039 C 25.407 1.685 25.46 2.233 25.46 3.095 C 25.46 3.645 25.407 4.349 25.355 5.171 L 23.173 28.291 Z M 44.431 28.291 L 49.555 28.291 L 51.446 8.502 C 51.552 7.171 51.946 6.465 52.629 6.465 C 53.286 6.465 53.575 6.936 53.575 7.954 C 53.575 8.11 53.548 8.345 53.548 8.503 L 51.657 28.289 L 56.781 28.289 L 58.646 8.385 C 58.777 7.17 59.224 6.386 59.882 6.386 C 60.433 6.386 60.748 6.856 60.748 7.68 C 60.748 7.876 60.722 8.071 60.722 8.307 L 58.778 28.289 L 63.876 28.289 L 66.109 4.78 C 66.188 3.957 66.214 3.29 66.214 2.704 C 66.214 0.979 65.557 0 64.401 0 L 61.957 0.039 C 61.248 0.078 60.591 0.509 60.223 1.174 C 60.013 1.528 59.829 1.999 59.619 2.586 C 59.539 2.859 59.381 3.251 59.224 3.761 C 59.224 1.999 59.172 1.567 58.909 0.979 C 58.726 0.47 58.147 0.039 57.595 0.039 L 54.521 0.039 C 53.602 0.039 53.05 0.705 52.209 2.978 L 51.709 4.271 C 51.815 3.212 51.84 2.742 51.84 2.155 C 51.84 1.488 51.815 1.057 51.709 0.039 L 46.507 0.039 C 46.664 1.685 46.717 2.233 46.717 3.095 C 46.717 3.645 46.664 4.349 46.611 5.171 L 44.431 28.291 Z M 65.688 28.291 L 70.759 28.291 L 71.363 22.1 L 73.386 22.1 L 72.808 28.291 L 77.906 28.291 L 80.192 4.153 C 80.219 3.682 80.245 3.212 80.245 2.781 C 80.245 1.096 79.483 0.039 78.247 0.039 L 70.654 0.039 C 69.971 0.039 69.34 0.392 68.867 1.018 C 68.315 1.724 68.105 2.508 67.947 4.153 L 65.688 28.291 Z M 72.703 7.915 C 72.808 6.661 73.203 5.994 73.834 5.994 C 74.49 5.994 74.753 6.386 74.753 7.445 C 74.753 7.601 74.727 7.757 74.727 7.915 L 73.938 16.104 L 71.941 16.104 L 72.703 7.915 Z M 79.691 28.291 L 84.816 28.291 L 86.681 8.816 C 86.787 7.367 87.207 6.661 87.89 6.661 C 88.416 6.661 88.758 7.17 88.758 7.876 C 88.758 8.071 88.731 8.385 88.679 8.738 L 86.84 28.289 L 91.99 28.289 L 94.197 4.858 C 94.25 4.074 94.328 3.212 94.328 2.82 C 94.328 1.135 93.514 0.039 92.279 0.039 L 90.177 0.039 C 89.467 0.039 88.81 0.392 88.311 1.018 C 87.838 1.646 87.575 2.194 87.102 3.682 C 87.155 2.742 87.181 2.272 87.181 1.802 C 87.181 1.252 87.155 0.901 87.05 0.039 L 81.768 0.039 C 81.925 1.607 81.978 2.233 81.978 3.095 C 81.978 3.645 81.951 4.31 81.873 5.133 L 79.691 28.291 Z M 93.776 28.291 L 103.156 28.291 C 104.996 28.291 106.152 26.331 106.493 22.765 L 108.123 5.603 C 108.175 4.937 108.202 4.309 108.202 3.761 C 108.202 1.489 107.282 0.039 105.784 0.039 L 96.403 0.039 L 93.776 28.291 Z M 100.949 6.269 L 101.842 6.269 C 102.42 6.269 102.735 6.818 102.735 7.837 C 102.735 8.032 102.735 8.228 102.709 8.423 L 101.658 19.63 C 101.5 21.433 101.211 21.942 100.397 21.942 L 99.478 21.942 L 100.949 6.269 Z M 117.897 28.291 L 118.501 21.942 L 113.482 21.942 L 113.902 17.436 L 118.947 17.436 L 119.525 11.05 L 114.506 11.05 L 114.954 6.269 L 120.025 6.269 L 120.577 0.039 L 113.745 0.039 C 112.246 0.039 111.722 0.274 111.092 1.449 C 110.434 2.508 110.013 4.153 109.83 6.034 L 108.279 22.49 C 108.227 22.97 108.2 23.455 108.2 23.941 C 108.2 26.879 109.173 28.289 111.143 28.289 L 117.897 28.291 Z M 119.735 28.291 L 124.833 28.291 L 125.831 17.711 L 126.593 17.711 C 127.329 17.711 127.618 18.062 127.618 19.121 L 127.618 19.435 L 127.066 25.312 C 127.04 25.625 127.04 25.9 127.04 26.214 C 127.04 27.193 127.066 27.545 127.302 28.289 L 132.768 28.289 C 132.427 27.232 132.348 26.801 132.348 26.174 C 132.348 25.861 132.374 25.508 132.427 24.999 L 133.005 18.886 C 133.031 18.415 133.057 17.945 133.057 17.514 C 133.057 15.438 132.296 14.38 130.404 13.949 C 131.638 13.636 132.165 13.361 132.637 12.735 C 133.268 11.912 133.714 10.54 133.846 8.815 L 134.24 4.78 C 134.266 4.545 134.266 4.231 134.266 3.957 C 134.266 2.781 134.055 1.841 133.635 1.175 C 133.083 0.274 132.531 0.04 131.007 0.04 L 122.362 0.04 L 119.735 28.291 Z M 126.961 6.152 L 127.461 6.152 C 128.327 6.152 128.695 6.542 128.695 7.483 C 128.695 8.149 128.564 9.482 128.38 10.187 C 128.222 10.971 127.828 11.245 127.066 11.245 L 126.488 11.245 L 126.961 6.152 Z" style="stroke: none; fill: rgb(255, 255, 255);"/>
</svg>

<svg xmlns="http://www.w3.org/2000/svg" viewBox="0 0 213.5 29"><path d="M153.74 12.73H148c.31 1.02.4 1.45.4 2.24q0 .6-.06 1.21l-.6 6.15h-1.13c-.64 0-.82-.23-.82-1.02l.03-.58 1.05-11.05c.05-.79.1-1.22.13-1.41.05-.28.21-.6.4-.79q.38-.4.86-.39h3.44c.69 0 1.53.08 1.79.2q.25.16.7.5l.67-7h-9.12l-1.29.03q-.71.13-1.26.94c-.6.82-.9 1.96-1.08 3.69l-1.7 18.14q-.14 1.37-.14 2.39c0 2.11.69 3.05 2.24 3.05h7.38c.74 0 1.6-.7 2.05-1.72.5-1.06.58-1.5.81-4.15zm10.4 16.3.61-6.35h-5.02l.42-4.5h5.05l.58-6.39h-5.02l.44-4.78h5.08l.55-6.23h-6.84c-1.5 0-2.02.24-2.65 1.41-.66 1.06-1.08 2.7-1.26 4.59l-1.55 16.45q-.08.73-.08 1.45c0 2.94.97 4.35 2.94 4.35zm1.85 0h5.12l1.86-19.47q.18-2.17 1.21-2.16c.53 0 .87.51.87 1.22q0 .31-.08.86l-1.84 19.55h5.15L180.5 5.6c.05-.78.13-1.64.13-2.04 0-1.68-.81-2.78-2.05-2.78h-2.1a2.4 2.4 0 0 0-1.87.98 8 8 0 0 0-1.2 2.67 35 35 0 0 0 .07-1.89c0-.54-.02-.9-.13-1.76h-5.28a21 21 0 0 1 .1 5.1zm14.08 0h5.1L187.85.78h-5.15zM201.9.78h-5.1l-1.91 20.03c-.13 1.52-.16 1.64-.55 2-.21.15-.43.27-.66.27-.58 0-.95-.43-.95-1.14q0-.26.1-.94l1.9-20.22h-5.15l-2.29 24.6c-.05.56-.1 1.14-.1 1.5 0 1.6.47 2.15 1.89 2.15h8.04c1.74 0 2.2-.7 2.5-3.64zm-1.15 28.25h7.22c1.13 0 1.68-.31 2.29-1.13.66-.94.73-1.34.97-3.69l.9-9.4q.06-.61.05-1.22 0-2.46-2-2.46h-2.63l.42-4.12h4.92l.57-6.23H207c-1.52 0-1.81.12-2.57.78-.95.98-1.24 1.85-1.53 5.06l-.6 6.2q-.09.98-.08 1.99c0 2.43.63 3.45 2.1 3.45h2.31l-.4 4.35h-4.85zM7.65 28.3l.63-6.74H6.33c-.5 0-.79-.4-.79-1.14q0-.1.03-.27l1.1-11.91q.13-1.41 1.08-1.41H9.7l.63-6.78H5.47C4.01.04 3.8.16 3.15 1.06a9 9 0 0 0-1.42 4.27L.05 23.04q-.04.46-.05.98c0 1.3.26 2.55.68 3.25.45.86.84 1.02 2.13 1.02zm6.17 0h1.31c2.84 0 3.63-.35 4.94-2.08a10 10 0 0 0 1.45-3.01c.34-1.22.66-3.1.87-5.33l.68-7.17c.32-3.3.37-3.84.37-4.67 0-2.11-.42-3.95-1.13-4.82C21.7.47 20.57.04 19.05.04h-2.5Q12.81.02 11.72 3.4c-.53 1.6-.87 3.68-1.21 7.29l-.68 7.17a54 54 0 0 0-.21 3.52c0 4.35 1.57 6.9 4.2 6.9M16.8 21c-.16.63-.6 1.14-1.05 1.14-.53 0-.87-.51-.87-1.22q0-.4.1-1.21l1.14-12.15c.13-1.45.44-1.96 1.2-1.96.56 0 .85.36.85 1.18q0 .35-.06.78l-1.15 12.15-.16 1.3m6.38 7.3h5.13l1.89-19.8q.16-2.01 1.18-2.03.97-.02.95 1.48l-.03.55-1.9 19.79h5.12l1.87-19.9c.13-1.22.58-2 1.23-2 .56 0 .87.47.87 1.29l-.02.63-1.95 19.98h5.1l2.23-23.51q.11-1.21.1-2.08c0-1.72-.65-2.7-1.8-2.7L40.7.04c-.71.04-1.37.47-1.73 1.13q-.3.54-.6 1.42-.15.4-.4 1.17c0-1.76-.05-2.2-.32-2.78a1.5 1.5 0 0 0-1.31-.94h-3.08c-.92 0-1.47.66-2.3 2.94l-.5 1.3a18 18 0 0 0 0-4.23L25.24.03c.16 1.65.21 2.2.21 3.06q-.01.83-.1 2.07zm21.26 0h5.13l1.89-19.8q.16-2.01 1.18-2.03.97-.02.95 1.48l-.03.55-1.9 19.79h5.13l1.87-19.9c.13-1.22.57-2 1.23-2 .55 0 .87.47.87 1.29l-.03.63-1.94 19.98h5.1L66.1 4.78q.11-1.21.1-2.08c0-1.72-.65-2.7-1.8-2.7l-2.45.04c-.71.04-1.37.47-1.74 1.13q-.3.54-.6 1.42c-.08.27-.24.66-.4 1.17 0-1.76-.05-2.2-.31-2.78a1.5 1.5 0 0 0-1.3-.94h-3.08c-.92 0-1.47.66-2.31 2.94l-.5 1.3a18 18 0 0 0 0-4.23L46.5.03c.15 1.65.2 2.2.2 3.06q-.01.83-.1 2.07zm21.26 0h5.07l.6-6.2h2.03l-.58 6.2h5.1L80.2 4.16q.05-.71.06-1.37c0-1.68-.77-2.74-2-2.74h-7.6c-.68 0-1.31.35-1.78.98-.56.7-.77 1.49-.92 3.13zm7-20.41c.1-1.25.5-1.92 1.13-1.92.66 0 .92.4.92 1.46l-.02.46-.8 8.2h-1.99zm7 20.38h5.12l1.86-19.47q.17-2.17 1.21-2.16c.53 0 .87.51.87 1.22q0 .31-.08.86l-1.84 19.55h5.15l2.2-23.43c.06-.79.14-1.65.14-2.04 0-1.68-.82-2.78-2.05-2.78h-2.1c-.71 0-1.37.35-1.87.98a8 8 0 0 0-1.2 2.66c.05-.94.07-1.4.07-1.88 0-.55-.03-.9-.13-1.76h-5.28a22 22 0 0 1 .1 5.1zm14.08 0h9.38c1.84 0 3-1.96 3.33-5.52l1.63-17.17q.08-1.01.08-1.84c0-2.27-.92-3.72-2.42-3.72H96.4zm7.17-22.02h.9q.87.02.89 1.57 0 .3-.03.58l-1.05 11.21c-.16 1.8-.45 2.31-1.26 2.31h-.92zm16.95 22.02.6-6.35h-5.02l.42-4.5h5.05l.58-6.39h-5.02l.44-4.78h5.08l.55-6.23h-6.83c-1.5 0-2.03.23-2.66 1.4a11 11 0 0 0-1.26 4.6l-1.55 16.45q-.08.72-.08 1.45c0 2.94.97 4.35 2.94 4.35zm1.83 0h5.1l1-10.58h.76c.74 0 1.03.35 1.03 1.41v.31l-.55 5.88c-.03.32-.03.59-.03.9 0 .98.03 1.34.26 2.08h5.47a6 6 0 0 1-.34-3.3l.57-6.1q.05-.73.06-1.38c0-2.07-.76-3.13-2.66-3.56 1.24-.31 1.76-.59 2.24-1.21a7.6 7.6 0 0 0 1.2-3.93l.4-4.03c.03-.24.03-.55.03-.82q0-1.78-.64-2.78c-.55-.9-1.1-1.14-2.62-1.14h-8.65zm7.23-22.14h.5c.87 0 1.23.4 1.23 1.33 0 .67-.13 2-.31 2.7-.16.8-.55 1.06-1.31 1.06h-.58z" style="stroke:none;fill:#fff"/></svg>
